static/img/kroki/819c48fc655f5080c6b240d7b77f14aa.svg

<?xml version="1.0" encoding="us-ascii" standalone="no"?><svg xmlns="http://www.w3.org/2000/svg" xmlns:xlink="http://www.w3.org/1999/xlink" contentStyleType="text/css" height="152px" preserveAspectRatio="none" style="width:349px;height:152px;" version="1.1" viewBox="0 0 349 152" width="349px" zoomAndPan="magnify"><defs/><g><!--class kubernetes_namespace--><g id="elem_kubernetes_namespace"><rect codeLine="22" fill="#3D176E" height="39.7891" id="kubernetes_namespace" rx="2.5" ry="2.5" style="stroke:#000D19;stroke-width:0.5;" width="239" x="55" y="7"/><ellipse cx="70" cy="26.8945" fill="#ADD1B2" rx="11" ry="11" style="stroke:#181818;stroke-width:1.0;"/><path d="M72.9688,32.5352 Q72.3906,32.832 71.75,32.9727 Q71.1094,33.1289 70.4063,33.1289 Q67.9063,33.1289 66.5781,31.4883 Q65.2656,29.832 65.2656,26.707 Q65.2656,23.582 66.5781,21.9258 Q67.9063,20.2695 70.4063,20.2695 Q71.1094,20.2695 71.75,20.4258 Q72.4063,20.582 72.9688,20.8789 L72.9688,23.5977 Q72.3438,23.0195 71.75,22.7539 Q71.1563,22.4727 70.5313,22.4727 Q69.1875,22.4727 68.5,23.5508 Q67.8125,24.6133 67.8125,26.707 Q67.8125,28.8008 68.5,29.8789 Q69.1875,30.9414 70.5313,30.9414 Q71.1563,30.9414 71.75,30.6758 Q72.3438,30.3945 72.9688,29.8164 L72.9688,32.5352 Z " fill="#000000"/><text fill="#D9B8FF" font-family="Helvetica" font-size="17" lengthAdjust="spacing" textLength="197" x="89" y="32.7798">kubernetes_namespace</text></g><!--class kubernetes_pod_disruption_budget--><g id="elem_kubernetes_pod_disruption_budget"><rect codeLine="24" fill="#3D176E" height="39.7891" id="kubernetes_pod_disruption_budget" rx="2.5" ry="2.5" style="stroke:#000D19;stroke-width:0.5;" width="335" x="7" y="106.79"/><ellipse cx="22" cy="126.6845" fill="#ADD1B2" rx="11" ry="11" style="stroke:#181818;stroke-width:1.0;"/><path d="M24.9688,132.3252 Q24.3906,132.622 23.75,132.7627 Q23.1094,132.9189 22.4063,132.9189 Q19.9063,132.9189 18.5781,131.2783 Q17.2656,129.622 17.2656,126.497 Q17.2656,123.372 18.5781,121.7158 Q19.9063,120.0595 22.4063,120.0595 Q23.1094,120.0595 23.75,120.2158 Q24.4063,120.372 24.9688,120.6689 L24.9688,123.3877 Q24.3438,122.8095 23.75,122.5439 Q23.1563,122.2627 22.5313,122.2627 Q21.1875,122.2627 20.5,123.3408 Q19.8125,124.4033 19.8125,126.497 Q19.8125,128.5908 20.5,129.6689 Q21.1875,130.7314 22.5313,130.7314 Q23.1563,130.7314 23.75,130.4658 Q24.3438,130.1845 24.9688,129.6064 L24.9688,132.3252 Z " fill="#000000"/><text fill="#D9B8FF" font-family="Helvetica" font-size="17" lengthAdjust="spacing" textLength="293" x="41" y="132.5698">kubernetes_pod_disruption_budget</text></g><!--link kubernetes_namespace to kubernetes_pod_disruption_budget--><g id="link_kubernetes_namespace_kubernetes_pod_disruption_budget"><path codeLine="26" d="M174.5,47.22 C174.5,62.49 174.5,83.92 174.5,100.53 " fill="none" id="kubernetes_namespace-to-kubernetes_pod_disruption_budget" style="stroke:#1A83AF;stroke-width:2.0;"/><polygon fill="#1A83AF" points="174.5,105.41,178.5,96.41,174.5,100.41,170.5,96.41,174.5,105.41" style="stroke:#1A83AF;stroke-width:2.0;"/></g><!--SRC=[XP9FIyD04CNl_HGBFHSQYxQz26cWwAM8zIOIDfdPP4co6sOdbYf-TvDMPKtwvphlntjlXiareC2gvhsei4gGtCWLsjIIP2L28hkBR6b9Z9MIQZRlYsjh-2gmaHMA1opVaNKg-yHBhjF2e7FYnfDMCYqoies1epsJDAwLqB17HQLqBcGcdJICNXbO9Wkb-cJVT3o3O7w70ymI8FqWq-aKWcKVkHfrSUy_Ogi_K0J-qJQMSL1p476WBhRi2A_aOD5V_Mp79mcWJIPklTdpiHCPf7_pRIx1xZfQoTBvCOwHqFA-ncYm5IuNeEOduSTpSDfTJXHD-wW66LrislxjNwGeFaTVGxcs48DsrDIihOcJ1ZBa0thIO_8w3iB5B5o_JUwlsdm3]--></g></svg>

<svg xmlns="http://www.w3.org/2000/svg" width="349" height="152" preserveAspectRatio="none" style="width:349px;height:152px"><rect width="239" height="39.789" x="55" y="7" fill="#3D176E" rx="2.5" ry="2.5" style="stroke:#000d19;stroke-width:.5"/><circle cx="70" cy="26.895" r="11" fill="#ADD1B2" style="stroke:#181818;stroke-width:1"/><path d="M72.969 32.535q-.578.297-1.219.438-.64.156-1.344.156-2.5 0-3.828-1.64-1.312-1.657-1.312-4.782t1.312-4.781q1.328-1.656 3.828-1.656.703 0 1.344.156.656.156 1.219.453v2.719q-.625-.578-1.219-.844-.594-.281-1.219-.281-1.344 0-2.031 1.078-.688 1.062-.688 3.156 0 2.094.688 3.172.688 1.062 2.031 1.062.625 0 1.219-.265.594-.281 1.219-.86v2.72Z"/><text x="89" y="32.78" fill="#D9B8FF" font-family="Helvetica" font-size="17" textLength="197">kubernetes_namespace</text><rect width="335" height="39.789" x="7" y="106.79" fill="#3D176E" rx="2.5" ry="2.5" style="stroke:#000d19;stroke-width:.5"/><circle cx="22" cy="126.684" r="11" fill="#ADD1B2" style="stroke:#181818;stroke-width:1"/><path d="M24.969 132.325q-.578.297-1.219.438-.64.156-1.344.156-2.5 0-3.828-1.64-1.312-1.657-1.312-4.782t1.312-4.781q1.328-1.656 3.828-1.656.703 0 1.344.156.656.156 1.219.453v2.719q-.625-.579-1.219-.844-.594-.281-1.219-.281-1.343 0-2.031 1.078-.688 1.062-.688 3.156 0 2.094.688 3.172.688 1.062 2.031 1.062.625 0 1.219-.265.594-.281 1.219-.86v2.72Z"/><text x="41" y="132.57" fill="#D9B8FF" font-family="Helvetica" font-size="17" textLength="293">kubernetes_pod_disruption_budget</text><path fill="none" d="M174.5 47.22v53.31" style="stroke:#1a83af;stroke-width:2"/><path fill="#1A83AF" d="m174.5 105.41 4-9-4 4-4-4 4 9z" style="stroke:#1a83af;stroke-width:2"/></svg>
